**kern	**kern	**dynam
*part1	*part1	*part1
*staff2	*staff1	*
*I"Piano	*	*
*clefF4	*clefG2	*
*k[b-]	*k[b-]	*
=1	=1	=1
4GG	8rccc	.
.	8F#XL< 8A< 8c< 8d<	.
8GL	8rccc	.
8FnJ	8GJ< 8B-< 8d<	.
=	=	=
4En	8r	[ p
.	8B-L 8c 8g	.
4G	8rg	.
.	8B-J 8c	.
=	=	=
*^	*	*
8r	2C	8r	.
*	*	*^	*
8GL	.	8eL	4B-	.
8F	.	8d	.	.
8EJ	.	8cJ	8B-	.
*	*	*v	*v	*
=	=	=	=
8r	2C	8r	<
8FL	.	8AL 8c	.
8F	.	8A 8c	.
8FJ	.	8AJ 8c	.
*v	*v	*	*
=	=	=
4C	8rff	[ mp
.	8FL< 8A< 8c<	.
4C	8rff	.
.	8EJ< 8G< 8c<	.
=	=	=
4GG	8r	.
.	8GL 8B- 8d	.
4FF 4F	8r	.
.	8AJ 8c 8e-X 8f	.
=	=	=
4BB-	8r	.
.	8B-L 8d 8f	.
4F	8r	.
.	8cJ 8f 8a	.
=	=	=
*-	*-	*-
!!!system-decoration: {(s1,s2)}
!!!RDF**kern: < = below
